src/assets/icon_expand.svg

<svg viewBox="0 0 100 125" xmlns="http://www.w3.org/2000/svg" fill-rule="evenodd" clip-rule="evenodd" stroke-linejoin="round" stroke-miterlimit="2"><path d="M33.11 13.79a3.014 3.014 0 0 0-3.32-2.64l-14.37 1.63a3.009 3.009 0 0 0-2.64 2.64l-1.64 14.37a3.014 3.014 0 0 0 2.64 3.32h.34a3.011 3.011 0 0 0 3-2.66l.88-8.17 16.67 16.63a3 3 0 0 0 2.195.955c1.646 0 3-1.354 3-3a3 3 0 0 0-.955-2.195L22.28 18l8.19-.93a3.014 3.014 0 0 0 2.64-3.28zM11.14 70.21l1.64 14.37a3.009 3.009 0 0 0 2.64 2.64l14.37 1.64h.34a3.02 3.02 0 0 0 3.175-3 3.018 3.018 0 0 0-2.835-3L22.28 82l16.63-16.67a3.001 3.001 0 0 0 .805-2.045c0-1.646-1.354-3-3-3-.759 0-1.49.288-2.045.805L18 77.72l-.93-8.19a3.03 3.03 0 0 0-3-2.679 3.034 3.034 0 0 0-3 3.359h.07zm55.75 16a3.011 3.011 0 0 0 3 2.66h.34l14.37-1.64a3.009 3.009 0 0 0 2.64-2.64l1.64-14.37a3.034 3.034 0 0 0-3-3.359 3.03 3.03 0 0 0-3 2.679L82 77.72 65.33 61.09a3 3 0 0 0-2.195-.955c-1.646 0-3 1.354-3 3a3 3 0 0 0 .955 2.195L77.72 82l-8.19.93a3.014 3.014 0 0 0-2.64 3.28zm-5.8-47.3a3.014 3.014 0 0 0 4.24 0L82 22.28l.93 8.19a3.011 3.011 0 0 0 3 2.66h.34a3.014 3.014 0 0 0 2.64-3.32l-1.69-14.39a3.009 3.009 0 0 0-2.64-2.64l-14.37-1.64a3.034 3.034 0 0 0-3.359 3 3.03 3.03 0 0 0 2.679 3l8.19.93-16.63 16.6a3.014 3.014 0 0 0 0 4.24z" fill-rule="nonzero" fill="#F5F2ED"/></svg>

<?xml version="1.0" encoding="UTF-8" standalone="no"?>
<!DOCTYPE svg PUBLIC "-//W3C//DTD SVG 1.1//EN" "http://www.w3.org/Graphics/SVG/1.1/DTD/svg11.dtd">
<svg width="100%" height="100%" viewBox="0 0 100 125" version="1.1" xmlns="http://www.w3.org/2000/svg" xmlns:xlink="http://www.w3.org/1999/xlink" xml:space="preserve" xmlns:serif="http://www.serif.com/" style="fill-rule:evenodd;clip-rule:evenodd;stroke-linejoin:round;stroke-miterlimit:2;">
    <path d="M33.11,13.79C32.923,12.155 31.425,10.964 29.79,11.15L15.42,12.78C14.038,12.938 12.938,14.038 12.78,15.42L11.14,29.79C10.954,31.425 12.145,32.923 13.78,33.11L14.12,33.11C15.645,33.12 16.947,31.965 17.12,30.45L18,22.28L34.67,38.91C35.237,39.519 36.033,39.865 36.865,39.865C38.511,39.865 39.865,38.511 39.865,36.865C39.865,36.033 39.519,35.237 38.91,34.67L22.28,18L30.47,17.07C32.088,16.883 33.273,15.41 33.11,13.79Z" style="fill-rule:nonzero;fill:#F5F2ED;"/>
    <path d="M11.14,70.21L12.78,84.58C12.938,85.962 14.038,87.062 15.42,87.22L29.79,88.86L30.13,88.86C30.187,88.863 30.243,88.865 30.3,88.865C31.948,88.865 33.305,87.508 33.305,85.86C33.305,84.276 32.052,82.95 30.47,82.86L22.28,82L38.91,65.33C39.427,64.775 39.715,64.044 39.715,63.285C39.715,61.639 38.361,60.285 36.715,60.285C35.956,60.285 35.225,60.573 34.67,61.09L18,77.72L17.07,69.53C16.898,68.011 15.598,66.851 14.07,66.851C12.414,66.851 11.051,68.214 11.051,69.87C11.051,69.984 11.057,70.097 11.07,70.21L11.14,70.21Z" style="fill-rule:nonzero;fill:#F5F2ED;"/>
    <path d="M66.89,86.21C67.063,87.725 68.365,88.88 69.89,88.87L70.23,88.87L84.6,87.23C85.982,87.072 87.082,85.972 87.24,84.59L88.88,70.22C88.893,70.107 88.899,69.994 88.899,69.88C88.899,68.224 87.536,66.861 85.88,66.861C84.352,66.861 83.052,68.021 82.88,69.54L82,77.72L65.33,61.09C64.763,60.481 63.967,60.135 63.135,60.135C61.489,60.135 60.135,61.489 60.135,63.135C60.135,63.967 60.481,64.763 61.09,65.33L77.72,82L69.53,82.93C67.912,83.117 66.727,84.59 66.89,86.21Z" style="fill-rule:nonzero;fill:#F5F2ED;"/>
    <path d="M61.09,38.91C62.253,40.072 64.167,40.072 65.33,38.91L82,22.28L82.93,30.47C83.103,31.985 84.405,33.14 85.93,33.13L86.27,33.13C87.905,32.943 89.096,31.445 88.91,29.81L87.22,15.42C87.062,14.038 85.962,12.938 84.58,12.78L70.21,11.14C70.097,11.127 69.984,11.121 69.87,11.121C68.214,11.121 66.851,12.484 66.851,14.14C66.851,15.668 68.011,16.968 69.53,17.14L77.72,18.07L61.09,34.67C59.928,35.833 59.928,37.747 61.09,38.91Z" style="fill-rule:nonzero;fill:#F5F2ED;"/>
</svg>
